austria/municipalities/41333.svg

<?xml version="1.0" encoding="UTF-8"?>
<!DOCTYPE svg PUBLIC "-//W3C//DTD SVG 1.1//EN" "http://www.w3.org/Graphics/SVG/1.1/DTD/svg11.dtd">
<svg xmlns="http://www.w3.org/2000/svg" version="1.1" width="166px" height="207px" style="shape-rendering:geometricPrecision; text-rendering:geometricPrecision; image-rendering:optimizeQuality; fill-rule:evenodd; clip-rule:evenodd" xmlns:xlink="http://www.w3.org/1999/xlink">
<g><path style="opacity:1" fill="#010101" d="M -0.5,-0.5 C 54.8333,-0.5 110.167,-0.5 165.5,-0.5C 165.5,44.5 165.5,89.5 165.5,134.5C 161.239,157.511 149.906,176.344 131.5,191C 120.516,198.576 108.516,203.743 95.5,206.5C 86.8333,206.5 78.1667,206.5 69.5,206.5C 30.0336,197.035 6.70027,172.368 -0.5,132.5C -0.5,88.1667 -0.5,43.8333 -0.5,-0.5 Z"/></g>
<g><path style="opacity:1" fill="#fefffe" d="M 60.5,82.5 C 57.7422,83.7605 54.7422,84.5939 51.5,85C 52.056,85.3826 52.3893,85.8826 52.5,86.5C 50.516,85.8443 48.516,85.1776 46.5,84.5C 35.2238,88.8129 23.5571,91.4796 11.5,92.5C 12.0253,93.1924 12.6919,93.6924 13.5,94C 15.6667,94.1667 17.8333,94.3333 20,94.5C 27.8674,93.2367 35.7007,92.07 43.5,91C 34.1413,94.3859 24.4747,96.3859 14.5,97C 17.549,98.7623 20.8824,99.5956 24.5,99.5C 27.8413,99.1643 31.1746,98.8309 34.5,98.5C 32.1234,99.8873 29.4568,100.721 26.5,101C 28.087,101.862 29.7536,102.529 31.5,103C 37.1797,103.259 42.8463,102.926 48.5,102C 59.0162,99.2188 69.3495,96.2188 79.5,93C 73.7845,95.0815 70.1178,99.0815 68.5,105C 69.9961,105.507 71.1627,105.007 72,103.5C 72.3333,104.833 72.6667,106.167 73,107.5C 77.8636,102.307 78.6969,103.141 75.5,110C 76.1595,112.462 76.4928,114.962 76.5,117.5C 74.4247,117.302 72.4247,117.135 70.5,117C 69.6667,119.167 68.1667,120.667 66,121.5C 65.5172,122.448 65.3505,123.448 65.5,124.5C 44.8333,124.5 24.1667,124.5 3.5,124.5C 3.5,84.1667 3.5,43.8333 3.5,3.5C 56.1667,3.5 108.833,3.5 161.5,3.5C 161.5,43.8333 161.5,84.1667 161.5,124.5C 147.833,124.5 134.167,124.5 120.5,124.5C 120.739,122.533 120.406,120.699 119.5,119C 117.091,118.252 114.925,117.085 113,115.5C 109.437,117.057 106.771,116.057 105,112.5C 104,110.5 103,108.5 102,106.5C 101.83,100.472 101.33,94.4725 100.5,88.5C 98.9017,89.4847 97.235,89.6514 95.5,89C 105.347,87.1446 112.18,81.6446 116,72.5C 116.333,62.8333 116.667,53.1667 117,43.5C 123.005,35.6372 129.839,34.8038 137.5,41C 150.364,42.8023 155.864,37.3023 154,24.5C 146.198,13.9046 138.365,13.9046 130.5,24.5C 126.226,25.7769 121.893,26.7769 117.5,27.5C 112.773,23.2406 107.44,22.4073 101.5,25C 97.515,30.143 95.015,35.9763 94,42.5C 88.5045,48.9952 82.6712,55.1619 76.5,61C 70.235,64.1982 63.5683,66.1982 56.5,67C 43.8963,69.1588 31.2296,70.8255 18.5,72C 21.7582,74.4607 25.4248,76.1274 29.5,77C 36.8283,76.8897 44.1616,76.8897 51.5,77C 46.2152,78.026 40.8819,78.6927 35.5,79C 43.5237,82.1085 51.8571,83.2751 60.5,82.5 Z"/></g>
<g><path style="opacity:1" fill="#cb0000" d="M 140.5,18.5 C 150.118,19.0078 153.952,24.0078 152,33.5C 147.401,40.0623 141.568,41.2289 134.5,37C 132.436,34.3472 131.769,31.5139 132.5,28.5C 133.692,31.9227 135.692,34.756 138.5,37C 147.72,38.4471 151.553,34.6138 150,25.5C 147.99,22.4405 145.157,20.7738 141.5,20.5C 138.36,22.0702 135.36,23.5702 132.5,25C 134.279,21.6263 136.946,19.4596 140.5,18.5 Z"/></g>
<g><path style="opacity:1" fill="#fefffe" d="M 140.5,22.5 C 148.892,24.0623 150.559,28.229 145.5,35C 143.5,35.6667 141.5,35.6667 139.5,35C 138.273,33.4126 138.606,32.0793 140.5,31C 139.451,30.5078 138.451,30.6744 137.5,31.5C 134.924,30.1166 135.258,29.2833 138.5,29C 137.426,28.2613 136.759,27.2613 136.5,26C 137.686,24.5879 139.019,23.4212 140.5,22.5 Z"/></g>
<g><path style="opacity:1" fill="#fefffe" d="M 107.5,28.5 C 112.668,29.3385 113.668,31.8385 110.5,36C 107.143,37.1412 105.143,35.9746 104.5,32.5C 105.286,30.9589 106.286,29.6256 107.5,28.5 Z"/></g>
<g><path style="opacity:1" fill="#000000" d="M 108.5,30.5 C 111.14,31.7936 111.14,33.127 108.5,34.5C 105.875,33.1353 105.875,31.802 108.5,30.5 Z"/></g>
<g><path style="opacity:1" fill="#fefffe" d="M 126.5,30.5 C 128.942,30.3537 129.609,31.187 128.5,33C 126.5,33.6667 124.5,33.6667 122.5,33C 124.066,32.3918 125.4,31.5585 126.5,30.5 Z"/></g>
<g><path style="opacity:1" fill="#fefffe" d="M 76.5,69.5 C 77.0431,69.56 77.3764,69.8933 77.5,70.5C 76.635,71.5827 75.635,71.7494 74.5,71C 75.4158,70.7216 76.0825,70.2216 76.5,69.5 Z"/></g>
<g><path style="opacity:1" fill="#fefffe" d="M 67.5,73.5 C 69.2251,72.095 71.2251,71.595 73.5,72C 71.6547,73.128 69.6547,73.628 67.5,73.5 Z"/></g>
<g><path style="opacity:1" fill="#fefffe" d="M 84.5,73.5 C 85.0024,71.9153 86.0024,71.4153 87.5,72C 86.7562,73.0386 85.7562,73.5386 84.5,73.5 Z"/></g>
<g><path style="opacity:1" fill="#fefffe" d="M 67.5,73.5 C 63.5228,75.7399 59.1895,76.5732 54.5,76C 58.7872,74.8466 63.1205,74.0133 67.5,73.5 Z"/></g>
<g><path style="opacity:1" fill="#fefffe" d="M 84.5,73.5 C 81.5026,76.4965 77.836,78.1631 73.5,78.5C 76.7512,76.0431 80.4179,74.3764 84.5,73.5 Z"/></g>
<g><path style="opacity:1" fill="#fefffe" d="M 100.5,80.5 C 102.5,78.329 104.334,75.9957 106,73.5C 105.937,77.079 104.104,79.4123 100.5,80.5 Z"/></g>
<g><path style="opacity:1" fill="#fefffe" d="M 88.5,78.5 C 89.0024,76.9153 90.0024,76.4153 91.5,77C 90.7562,78.0386 89.7562,78.5386 88.5,78.5 Z"/></g>
<g><path style="opacity:1" fill="#fefffe" d="M 73.5,78.5 C 69.6222,81.0129 65.2888,82.3462 60.5,82.5C 64.6346,80.7904 68.9679,79.4571 73.5,78.5 Z"/></g>
<g><path style="opacity:1" fill="#fefffe" d="M 88.5,78.5 C 87.4863,79.6737 86.153,80.3404 84.5,80.5C 85.287,78.8958 86.6203,78.2291 88.5,78.5 Z"/></g>
<g><path style="opacity:1" fill="#000000" d="M 28.5,80.5 C 33.789,80.1186 38.789,81.1186 43.5,83.5C 36.2226,86.4381 29.2226,85.9381 22.5,82C 24.7078,81.8091 26.7078,81.3091 28.5,80.5 Z"/></g>
<g><path style="opacity:1" fill="#fefffe" d="M 84.5,80.5 C 79.4502,84.0311 73.7835,86.5311 67.5,88C 71.1516,88.4986 74.8183,88.6653 78.5,88.5C 70.2564,91.2304 61.9231,91.0637 53.5,88C 52.944,87.6174 52.6107,87.1174 52.5,86.5C 57.1493,87.2947 61.8159,87.4614 66.5,87C 72.6296,85.0977 78.6296,82.931 84.5,80.5 Z"/></g>
<g><path style="opacity:1" fill="#fefffe" d="M 100.5,80.5 C 100.027,81.9063 99.0269,82.573 97.5,82.5C 97.9731,81.0937 98.9731,80.427 100.5,80.5 Z"/></g>
<g><path style="opacity:1" fill="#fefffe" d="M 97.5,82.5 C 96.2511,84.1361 94.5844,85.3028 92.5,86C 87.9967,87.7797 83.33,88.613 78.5,88.5C 84.8591,86.9377 91.1925,84.9377 97.5,82.5 Z"/></g>
<g><path style="opacity:1" fill="#fefffe" d="M 40.5,96.5 C 42.2251,95.095 44.2251,94.595 46.5,95C 44.6547,96.128 42.6547,96.628 40.5,96.5 Z"/></g>
<g><path style="opacity:1" fill="#fefffe" d="M 40.5,96.5 C 38.8984,98.0739 36.8984,98.7406 34.5,98.5C 36.1016,96.9261 38.1016,96.2594 40.5,96.5 Z"/></g>
<g><path style="opacity:1" fill="#fefffe" d="M 87.5,96.5 C 88.7349,98.017 88.7349,99.6837 87.5,101.5C 88.868,102.594 90.0347,102.26 91,100.5C 91.6869,102.568 91.5202,104.568 90.5,106.5C 92.3255,107.571 93.4921,106.904 94,104.5C 94.0781,106.657 94.2448,108.657 94.5,110.5C 95.4803,109.019 96.647,107.685 98,106.5C 99.1811,110.363 101.014,113.863 103.5,117C 101.144,117.155 98.8107,117.155 96.5,117C 94.1633,118.798 93.4967,120.965 94.5,123.5C 95.4447,121.483 96.9447,121.15 99,122.5C 101.402,121.267 103.902,120.267 106.5,119.5C 108.96,119.637 110.96,120.637 112.5,122.5C 114.697,122.152 116.53,121.152 118,119.5C 118.494,121.134 118.66,122.801 118.5,124.5C 101.5,124.5 84.5,124.5 67.5,124.5C 67.281,123.325 67.6143,122.325 68.5,121.5C 69.6878,122.84 71.1878,123.507 73,123.5C 77.3482,120.925 81.6816,120.925 86,123.5C 87.2853,123.05 88.452,122.383 89.5,121.5C 90.1667,122.167 90.8333,122.833 91.5,123.5C 91.8333,123.167 92.1667,122.833 92.5,122.5C 91.376,121.086 90.376,119.586 89.5,118C 86.591,118.284 83.7577,118.117 81,117.5C 80.6676,114.494 79.8343,111.66 78.5,109C 80.441,107.097 82.7743,106.264 85.5,106.5C 85.8511,103.097 86.5178,99.7635 87.5,96.5 Z"/></g>
<g><path style="opacity:1" fill="#003266" d="M 3.5,126.5 C 25.8333,126.5 48.1667,126.5 70.5,126.5C 70.8331,151.842 70.4998,177.175 69.5,202.5C 33.7908,194.291 11.9575,172.291 4,136.5C 3.50166,133.183 3.33499,129.85 3.5,126.5 Z"/></g>
<g><path style="opacity:1" fill="#fefffe" d="M 72.5,126.5 C 79.1667,126.5 85.8333,126.5 92.5,126.5C 92.5,151.833 92.5,177.167 92.5,202.5C 85.8333,202.5 79.1667,202.5 72.5,202.5C 72.5,177.167 72.5,151.833 72.5,126.5 Z"/></g>
<g><path style="opacity:1" fill="#003266" d="M 94.5,126.5 C 116.833,126.5 139.167,126.5 161.5,126.5C 157.727,167.781 135.561,193.114 95,202.5C 94.5,177.169 94.3334,151.836 94.5,126.5 Z"/></g>
<g><path style="opacity:1" fill="#fefffe" d="M -0.5,132.5 C 6.70027,172.368 30.0336,197.035 69.5,206.5C 46.1667,206.5 22.8333,206.5 -0.5,206.5C -0.5,181.833 -0.5,157.167 -0.5,132.5 Z"/></g>
<g><path style="opacity:1" fill="#fefffe" d="M 165.5,134.5 C 165.5,158.5 165.5,182.5 165.5,206.5C 142.167,206.5 118.833,206.5 95.5,206.5C 108.516,203.743 120.516,198.576 131.5,191C 149.906,176.344 161.239,157.511 165.5,134.5 Z"/></g>
</svg>

<svg xmlns="http://www.w3.org/2000/svg" width="166" height="207" style="shape-rendering:geometricPrecision;text-rendering:geometricPrecision;image-rendering:optimizeQuality;fill-rule:evenodd;clip-rule:evenodd"><path style="opacity:1" fill="#010101" d="M-.5-.5h166v135c-4.261 23.011-15.594 41.844-34 56.5-10.984 7.576-22.984 12.743-36 15.5h-26c-39.466-9.465-62.8-34.132-70-74V-.5z"/><path style="opacity:1" fill="#fefffe" d="M60.5 82.5c-2.758 1.26-5.758 2.094-9 2.5.556.383.89.883 1 1.5-1.984-.656-3.984-1.322-6-2a127.615 127.615 0 0 1-35 8 4.452 4.452 0 0 0 2 1.5l6.5.5c7.867-1.263 15.7-2.43 23.5-3.5a103.498 103.498 0 0 1-29 6c3.049 1.762 6.382 2.596 10 2.5 3.341-.336 6.675-.67 10-1-2.377 1.387-5.043 2.221-8 2.5a22.973 22.973 0 0 0 5 2 81.833 81.833 0 0 0 17-1 665.203 665.203 0 0 0 31-9c-5.716 2.082-9.382 6.082-11 12 1.496.507 2.663.007 3.5-1.5l1 4c4.864-5.193 5.697-4.359 2.5 2.5.66 2.462.993 4.962 1 7.5a240.26 240.26 0 0 0-6-.5c-.833 2.167-2.333 3.667-4.5 4.5a4.932 4.932 0 0 0-.5 3h-62V3.5h158v121h-41c.239-1.967-.094-3.801-1-5.5a18.979 18.979 0 0 1-6.5-3.5c-3.563 1.557-6.229.557-8-3l-3-6c-.17-6.028-.67-12.028-1.5-18-1.598.985-3.265 1.151-5 .5 9.847-1.855 16.68-7.355 20.5-16.5l1-29c6.005-7.863 12.839-8.696 20.5-2.5 12.864 1.802 18.364-3.698 16.5-16.5-7.802-10.595-15.635-10.595-23.5 0a104.866 104.866 0 0 1-13 3c-4.727-4.26-10.06-5.093-16-2.5-3.985 5.143-6.485 10.976-7.5 17.5A229.547 229.547 0 0 1 76.5 61c-6.265 3.198-12.932 5.198-20 6a493.646 493.646 0 0 1-38 5c3.258 2.46 6.925 4.127 11 5a731.38 731.38 0 0 1 22 0 119.644 119.644 0 0 1-16 2c8.024 3.109 16.357 4.275 25 3.5z"/><path style="opacity:1" fill="#cb0000" d="M140.5 18.5c9.618.508 13.452 5.508 11.5 15-4.599 6.562-10.432 7.729-17.5 3.5-2.064-2.653-2.731-5.486-2-8.5 1.192 3.423 3.192 6.256 6 8.5 9.22 1.447 13.053-2.386 11.5-11.5-2.01-3.06-4.843-4.726-8.5-5l-9 4.5c1.779-3.374 4.446-5.54 8-6.5z"/><path style="opacity:1" fill="#fefffe" d="M140.5 22.5c8.392 1.562 10.059 5.729 5 12.5-2 .667-4 .667-6 0-1.227-1.587-.894-2.92 1-4-1.049-.492-2.049-.326-3 .5-2.576-1.383-2.242-2.217 1-2.5-1.074-.739-1.741-1.739-2-3 1.186-1.412 2.519-2.579 4-3.5zM107.5 28.5c5.168.838 6.168 3.338 3 7.5-3.357 1.141-5.357-.025-6-3.5a14.193 14.193 0 0 1 3-4z"/><path style="opacity:1" d="M108.5 30.5c2.64 1.294 2.64 2.627 0 4-2.625-1.365-2.625-2.698 0-4z"/><path style="opacity:1" fill="#fefffe" d="M126.5 30.5c2.442-.146 3.109.687 2 2.5-2 .667-4 .667-6 0 1.566-.608 2.9-1.442 4-2.5zM76.5 69.5c.543.06.876.393 1 1-.865 1.083-1.865 1.25-3 .5.916-.278 1.582-.778 2-1.5zM67.5 73.5c1.725-1.405 3.725-1.905 6-1.5a10.1 10.1 0 0 1-6 1.5zM84.5 73.5c.502-1.585 1.502-2.085 3-1.5-.744 1.039-1.744 1.539-3 1.5zM67.5 73.5c-3.977 2.24-8.31 3.073-13 2.5a90.547 90.547 0 0 1 13-2.5zM84.5 73.5c-2.997 2.996-6.664 4.663-11 5 3.251-2.457 6.918-4.124 11-5zM100.5 80.5c2-2.171 3.834-4.504 5.5-7-.063 3.579-1.896 5.912-5.5 7zM88.5 78.5c.502-1.585 1.502-2.085 3-1.5-.744 1.039-1.744 1.539-3 1.5zM73.5 78.5c-3.878 2.513-8.211 3.846-13 4a73.904 73.904 0 0 1 13-4zM88.5 78.5c-1.014 1.174-2.347 1.84-4 2 .787-1.604 2.12-2.27 4-2z"/><path style="opacity:1" d="M28.5 80.5c5.289-.381 10.289.619 15 3-7.277 2.938-14.277 2.438-21-1.5 2.208-.19 4.208-.69 6-1.5z"/><path style="opacity:1" fill="#fefffe" d="M84.5 80.5c-5.05 3.531-10.716 6.031-17 7.5a60.94 60.94 0 0 0 11 .5c-8.244 2.73-16.577 2.564-25-.5-.556-.383-.89-.883-1-1.5 4.65.795 9.316.961 14 .5a208.689 208.689 0 0 0 18-6.5zM100.5 80.5c-.473 1.406-1.473 2.073-3 2 .473-1.406 1.473-2.073 3-2zM97.5 82.5c-1.249 1.636-2.916 2.803-5 3.5a35.46 35.46 0 0 1-14 2.5 155.78 155.78 0 0 0 19-6zM40.5 96.5c1.725-1.405 3.725-1.905 6-1.5a10.1 10.1 0 0 1-6 1.5zM40.5 96.5c-1.602 1.574-3.602 2.24-6 2 1.602-1.574 3.602-2.24 6-2zM87.5 96.5c1.235 1.517 1.235 3.184 0 5 1.368 1.094 2.535.76 3.5-1 .687 2.068.52 4.068-.5 6 1.826 1.071 2.992.404 3.5-2 .078 2.157.245 4.157.5 6a19.897 19.897 0 0 1 3.5-4 31.653 31.653 0 0 0 5.5 10.5c-2.356.155-4.69.155-7 0-2.337 1.798-3.003 3.965-2 6.5.945-2.017 2.445-2.35 4.5-1a43.125 43.125 0 0 1 7.5-3c2.46.137 4.46 1.137 6 3 2.197-.348 4.03-1.348 5.5-3a12.93 12.93 0 0 1 .5 5h-51c-.219-1.175.114-2.175 1-3 1.188 1.34 2.688 2.007 4.5 2 4.348-2.575 8.682-2.575 13 0a11.064 11.064 0 0 0 3.5-2l2 2 1-1a32.367 32.367 0 0 1-3-4.5c-2.909.284-5.742.117-8.5-.5a24.911 24.911 0 0 0-2.5-8.5c1.941-1.903 4.274-2.736 7-2.5a53.768 53.768 0 0 1 2-10z"/><path style="opacity:1" fill="#003266" d="M3.5 126.5h67c.333 25.342 0 50.675-1 76-35.71-8.209-57.543-30.209-65.5-66a50.438 50.438 0 0 1-.5-10z"/><path style="opacity:1" fill="#fefffe" d="M72.5 126.5h20v76h-20v-76z"/><path style="opacity:1" fill="#003266" d="M94.5 126.5h67c-3.773 41.281-25.939 66.614-66.5 76-.5-25.331-.667-50.664-.5-76z"/><path style="opacity:1" fill="#fefffe" d="M-.5 132.5c7.2 39.868 30.534 64.535 70 74h-70v-74zM165.5 134.5v72h-70c13.016-2.757 25.016-7.924 36-15.5 18.406-14.656 29.739-33.489 34-56.5z"/></svg>
